src/assets/backgrounds/squiggle.svg

<svg width="32" height="25" viewBox="0 0 32 25" fill="none"
  xmlns="http://www.w3.org/2000/svg">
  <g clip-path="url(#clip0_3844_9263)">
    <path d="M0.162 1.59302C0.108 1.59302 0.054 1.60102 0 1.60202V10.182C0.055 10.18 0.107 10.165 0.163 10.165C1.558 10.165 2.843 10.732 3.783 11.763L5.832 14.011C7.09535 15.3943 8.63277 16.4995 10.3465 17.2563C12.0602 18.0132 13.9126 18.405 15.786 18.407C19.566 18.407 23.194 16.804 25.74 14.011L27.791 11.761C28.2306 11.2771 28.7638 10.8875 29.3583 10.6157C29.9529 10.344 30.5965 10.1957 31.25 10.18V1.60002C29.4042 1.62298 27.5828 2.02423 25.8982 2.77896C24.2137 3.5337 22.7018 4.62588 21.456 5.98802L19.406 8.23802C18.9491 8.74418 18.3905 9.14811 17.7666 9.42332C17.1428 9.69854 16.4678 9.83883 15.786 9.83502C15.1042 9.83857 14.4294 9.69805 13.8058 9.42266C13.1821 9.14728 12.6237 8.74324 12.167 8.23702L10.118 5.99002C8.85451 4.6063 7.31681 3.50076 5.60274 2.74375C3.88867 1.98674 2.03579 1.59485 0.162 1.59302Z" fill="currentColor"/>
  </g>
  <defs>
    <clipPath id="clip0_3844_9263">
      <rect width="31.25" height="25" fill="white"/>
    </clipPath>
  </defs>
</svg>

<svg xmlns="http://www.w3.org/2000/svg" width="31.25" height="21.5">
  <rect width="100%" height="100%" fill="none"/>
  <path fill="#ecc94b" d="M.162 1.593c-.054 0-.108.008-.162.009v8.58c.055-.002.107-.017.163-.017 1.395 0 2.68.567 3.62 1.598l2.049 2.248a13.5 13.5 0 0 0 9.954 4.396c3.78 0 7.408-1.603 9.954-4.396l2.051-2.25a4.83 4.83 0 0 1 3.459-1.581V1.6a13.5 13.5 0 0 0-9.794 4.388l-2.05 2.25a4.84 4.84 0 0 1-3.62 1.597 4.84 4.84 0 0 1-3.619-1.598L10.118 5.99A13.5 13.5 0 0 0 .162 1.593"/>
</svg>
